head-flash-outline.svg

<svg fill="currentColor" viewBox="0 0 24 24"><path d="M13 3c3.9 0 7 3.1 7 7 0 2.8-1.6 5.2-4 6.3V21H9v-3H8c-1.1 0-2-.9-2-2v-3H4.5c-.4 0-.7-.5-.4-.8L6 9.7C6.2 5.9 9.2 3 13 3m0-2C8.4 1 4.6 4.4 4.1 8.9L2.5 11c-.6.8-.6 1.8-.2 2.6.4.7 1 1.2 1.7 1.3V16c0 1.9 1.3 3.4 3 3.9V23h11v-5.5c2.5-1.7 4-4.4 4-7.5 0-5-4-9-9-9m2 8-3.1 6 .6-4h-2.1l2.1-5H15l-1.5 3z"/></svg>

<svg  viewBox="0 0 24 24" fill="currentColor"><path  d="M13 3C16.9 3 20 6.1 20 10C20 12.8 18.4 15.2 16 16.3V21H9V18H8C6.9 18 6 17.1 6 16V13H4.5C4.1 13 3.8 12.5 4.1 12.2L6 9.7C6.2 5.9 9.2 3 13 3M13 1C8.4 1 4.6 4.4 4.1 8.9L2.5 11C1.9 11.8 1.9 12.8 2.3 13.6C2.7 14.3 3.3 14.8 4 14.9V16C4 17.9 5.3 19.4 7 19.9V23H18V17.5C20.5 15.8 22 13.1 22 10C22 5 18 1 13 1M15 9L11.9 15L12.5 11H10.4L12.5 6H15L13.5 9H15Z"/></svg>
